images/iconmonstr-home-9.svg

<svg xmlns="http://www.w3.org/2000/svg" width="24" height="24" viewBox="0 0 24 24"><path d="M20 7.093v-5.093h-3v2.093l3 3zm4 5.907l-12-12-12 12h3v10h18v-10h3zm-5 8h-14v-10.26l7-6.912 7 6.99v10.182zm-5-1h-4v-6h4v6z"/></svg>

<svg xmlns="http://www.w3.org/2000/svg" width="24" height="24" viewBox="0 0 24 24"><path d="M20 7.093V2h-3v2.093l3 3zM24 13L12 1 0 13h3v10h18V13h3zm-5 8H5V10.74l7-6.912 7 6.99V21zm-5-1h-4v-6h4v6z"/></svg>
